images/73677.svg

<?xml version="1.0" encoding="UTF-8"?>
<svg xmlns="http://www.w3.org/2000/svg" xmlns:xlink="http://www.w3.org/1999/xlink" width="300pt" height="300pt" viewBox="0 0 300 300" version="1.1">
<defs>
<g>
<symbol overflow="visible" id="glyph0-0">
<path style="stroke:none;" d="M 0.546875 1.9375 L 0.546875 -7.75 L 6.046875 -7.75 L 6.046875 1.9375 Z M 1.171875 1.328125 L 5.4375 1.328125 L 5.4375 -7.140625 L 1.171875 -7.140625 Z M 1.171875 1.328125 "/>
</symbol>
<symbol overflow="visible" id="glyph0-1">
<path style="stroke:none;" d="M 4.328125 -7.28125 C 3.546875 -7.28125 2.921875 -6.984375 2.453125 -6.390625 C 1.992188 -5.804688 1.765625 -5.007812 1.765625 -4 C 1.765625 -2.988281 1.992188 -2.1875 2.453125 -1.59375 C 2.921875 -1.007812 3.546875 -0.71875 4.328125 -0.71875 C 5.117188 -0.71875 5.742188 -1.007812 6.203125 -1.59375 C 6.660156 -2.1875 6.890625 -2.988281 6.890625 -4 C 6.890625 -5.007812 6.660156 -5.804688 6.203125 -6.390625 C 5.742188 -6.984375 5.117188 -7.28125 4.328125 -7.28125 Z M 4.328125 -8.171875 C 5.453125 -8.171875 6.351562 -7.789062 7.03125 -7.03125 C 7.707031 -6.28125 8.046875 -5.269531 8.046875 -4 C 8.046875 -2.738281 7.707031 -1.726562 7.03125 -0.96875 C 6.351562 -0.21875 5.453125 0.15625 4.328125 0.15625 C 3.203125 0.15625 2.300781 -0.21875 1.625 -0.96875 C 0.957031 -1.71875 0.625 -2.726562 0.625 -4 C 0.625 -5.269531 0.957031 -6.28125 1.625 -7.03125 C 2.300781 -7.789062 3.203125 -8.171875 4.328125 -8.171875 Z M 4.328125 -8.171875 "/>
</symbol>
<symbol overflow="visible" id="glyph0-2">
<path style="stroke:none;" d="M 1.078125 -8.015625 L 2.171875 -8.015625 L 2.171875 -4.734375 L 6.109375 -4.734375 L 6.109375 -8.015625 L 7.1875 -8.015625 L 7.1875 0 L 6.109375 0 L 6.109375 -3.8125 L 2.171875 -3.8125 L 2.171875 0 L 1.078125 0 Z M 1.078125 -8.015625 "/>
</symbol>
</g>
</defs>
<g id="surface52197">
<rect x="0" y="0" width="300" height="300" style="fill:rgb(100%,100%,100%);fill-opacity:1;stroke:none;"/>
<path style="fill:none;stroke-width:1.2;stroke-linecap:butt;stroke-linejoin:miter;stroke:rgb(0%,0%,0%);stroke-opacity:1;stroke-miterlimit:10;" d="M 214.386719 205.6875 L 207.300781 179.484375 "/>
<path style="fill:none;stroke-width:1.2;stroke-linecap:butt;stroke-linejoin:miter;stroke:rgb(0%,0%,0%);stroke-opacity:1;stroke-miterlimit:10;" d="M 207.300781 179.484375 L 226.449219 160.246094 "/>
<path style="fill:none;stroke-width:1.2;stroke-linecap:butt;stroke-linejoin:miter;stroke:rgb(0%,0%,0%);stroke-opacity:1;stroke-miterlimit:10;" d="M 204.6875 173.054688 L 220.007812 157.664062 "/>
<path style="fill:none;stroke-width:1.2;stroke-linecap:butt;stroke-linejoin:miter;stroke:rgb(0%,0%,0%);stroke-opacity:1;stroke-miterlimit:10;" d="M 181.0625 172.519531 L 207.300781 179.484375 "/>
<path style="fill:none;stroke-width:1.2;stroke-linecap:butt;stroke-linejoin:miter;stroke:rgb(0%,0%,0%);stroke-opacity:1;stroke-miterlimit:10;" d="M 226.449219 160.246094 L 219.363281 134.039062 "/>
<path style="fill:none;stroke-width:1.2;stroke-linecap:butt;stroke-linejoin:miter;stroke:rgb(0%,0%,0%);stroke-opacity:1;stroke-miterlimit:10;" d="M 219.363281 134.039062 L 193.125 127.074219 "/>
<path style="fill:none;stroke-width:1.2;stroke-linecap:butt;stroke-linejoin:miter;stroke:rgb(0%,0%,0%);stroke-opacity:1;stroke-miterlimit:10;" d="M 215.101562 139.515625 L 194.109375 133.945312 "/>
<path style="fill:none;stroke-width:1.2;stroke-linecap:butt;stroke-linejoin:miter;stroke:rgb(0%,0%,0%);stroke-opacity:1;stroke-miterlimit:10;" d="M 219.363281 134.039062 L 228.9375 124.421875 "/>
<path style="fill:none;stroke-width:1.2;stroke-linecap:butt;stroke-linejoin:miter;stroke:rgb(100%,0%,0%);stroke-opacity:1;stroke-miterlimit:10;" d="M 228.9375 124.421875 L 238.511719 114.800781 "/>
<path style="fill:none;stroke-width:1.2;stroke-linecap:butt;stroke-linejoin:miter;stroke:rgb(0%,0%,0%);stroke-opacity:1;stroke-miterlimit:10;" d="M 193.125 127.074219 L 173.976562 146.316406 "/>
<path style="fill:none;stroke-width:1.2;stroke-linecap:butt;stroke-linejoin:miter;stroke:rgb(0%,0%,0%);stroke-opacity:1;stroke-miterlimit:10;" d="M 193.125 127.074219 L 186.039062 100.871094 "/>
<path style="fill:none;stroke-width:1.2;stroke-linecap:butt;stroke-linejoin:miter;stroke:rgb(0%,0%,0%);stroke-opacity:1;stroke-miterlimit:10;" d="M 173.976562 146.316406 L 181.0625 172.519531 "/>
<path style="fill:none;stroke-width:1.2;stroke-linecap:butt;stroke-linejoin:miter;stroke:rgb(0%,0%,0%);stroke-opacity:1;stroke-miterlimit:10;" d="M 168.519531 150.601562 L 174.1875 171.566406 "/>
<path style="fill:none;stroke-width:1.2;stroke-linecap:butt;stroke-linejoin:miter;stroke:rgb(100%,0%,0%);stroke-opacity:1;stroke-miterlimit:10;" d="M 149.070312 135.515625 L 161.523438 140.914062 "/>
<path style="fill:none;stroke-width:1.2;stroke-linecap:butt;stroke-linejoin:miter;stroke:rgb(0%,0%,0%);stroke-opacity:1;stroke-miterlimit:10;" d="M 161.523438 140.914062 L 173.976562 146.316406 "/>
<path style="fill:none;stroke-width:1.2;stroke-linecap:butt;stroke-linejoin:miter;stroke:rgb(0%,0%,0%);stroke-opacity:1;stroke-miterlimit:10;" d="M 181.0625 172.519531 L 164.992188 194.398438 "/>
<path style="fill:none;stroke-width:1.2;stroke-linecap:butt;stroke-linejoin:miter;stroke:rgb(0%,0%,0%);stroke-opacity:1;stroke-miterlimit:10;" d="M 162.171875 195.894531 L 168.542969 207.882812 "/>
<path style="fill:none;stroke-width:1.2;stroke-linecap:butt;stroke-linejoin:miter;stroke:rgb(100%,0%,0%);stroke-opacity:1;stroke-miterlimit:10;" d="M 168.542969 207.882812 L 174.914062 219.867188 "/>
<path style="fill:none;stroke-width:1.2;stroke-linecap:butt;stroke-linejoin:miter;stroke:rgb(0%,0%,0%);stroke-opacity:1;stroke-miterlimit:10;" d="M 167.8125 192.898438 L 174.183594 204.882812 "/>
<path style="fill:none;stroke-width:1.2;stroke-linecap:butt;stroke-linejoin:miter;stroke:rgb(100%,0%,0%);stroke-opacity:1;stroke-miterlimit:10;" d="M 174.183594 204.882812 L 180.554688 216.867188 "/>
<path style="fill:none;stroke-width:1.2;stroke-linecap:butt;stroke-linejoin:miter;stroke:rgb(0%,0%,0%);stroke-opacity:1;stroke-miterlimit:10;" d="M 164.992188 194.398438 L 151.429688 194.9375 "/>
<path style="fill:none;stroke-width:1.2;stroke-linecap:butt;stroke-linejoin:miter;stroke:rgb(100%,0%,0%);stroke-opacity:1;stroke-miterlimit:10;" d="M 151.429688 194.9375 L 137.867188 195.476562 "/>
<path style=" stroke:none;fill-rule:nonzero;fill:rgb(100%,100%,100%);fill-opacity:1;" d="M 173.734375 211.867188 L 182.734375 211.867188 L 182.734375 224.867188 L 173.734375 224.867188 Z M 173.734375 211.867188 "/>
<g style="fill:rgb(100%,0%,0%);fill-opacity:1;">
  <use xlink:href="#glyph0-1" x="173.734375" y="221.768555"/>
</g>
<path style="fill:none;stroke-width:1.2;stroke-linecap:butt;stroke-linejoin:miter;stroke:rgb(100%,0%,0%);stroke-opacity:1;stroke-miterlimit:10;" d="M 137.867188 195.476562 L 128.992188 185.207031 "/>
<path style="fill:none;stroke-width:1.2;stroke-linecap:butt;stroke-linejoin:miter;stroke:rgb(0%,0%,0%);stroke-opacity:1;stroke-miterlimit:10;" d="M 128.992188 185.207031 L 120.113281 174.941406 "/>
<path style=" stroke:none;fill-rule:nonzero;fill:rgb(100%,100%,100%);fill-opacity:1;" d="M 133.867188 188.976562 L 142.867188 188.976562 L 142.867188 201.976562 L 133.867188 201.976562 Z M 133.867188 188.976562 "/>
<g style="fill:rgb(100%,0%,0%);fill-opacity:1;">
  <use xlink:href="#glyph0-1" x="133.867188" y="198.87793"/>
</g>
<path style="fill:none;stroke-width:1.2;stroke-linecap:butt;stroke-linejoin:miter;stroke:rgb(0%,0%,0%);stroke-opacity:1;stroke-miterlimit:10;" d="M 120.113281 174.941406 L 125.101562 148.257812 "/>
<path style="fill:none;stroke-width:1.2;stroke-linecap:butt;stroke-linejoin:miter;stroke:rgb(0%,0%,0%);stroke-opacity:1;stroke-miterlimit:10;" d="M 114.335938 171.097656 L 118.324219 149.753906 "/>
<path style="fill:none;stroke-width:1.2;stroke-linecap:butt;stroke-linejoin:miter;stroke:rgb(0%,0%,0%);stroke-opacity:1;stroke-miterlimit:10;" d="M 94.511719 183.964844 L 120.113281 174.941406 "/>
<path style="fill:none;stroke-width:1.2;stroke-linecap:butt;stroke-linejoin:miter;stroke:rgb(0%,0%,0%);stroke-opacity:1;stroke-miterlimit:10;" d="M 125.101562 148.257812 L 137.085938 141.886719 "/>
<path style="fill:none;stroke-width:1.2;stroke-linecap:butt;stroke-linejoin:miter;stroke:rgb(100%,0%,0%);stroke-opacity:1;stroke-miterlimit:10;" d="M 137.085938 141.886719 L 149.070312 135.515625 "/>
<path style="fill:none;stroke-width:1.2;stroke-linecap:butt;stroke-linejoin:miter;stroke:rgb(0%,0%,0%);stroke-opacity:1;stroke-miterlimit:10;" d="M 125.101562 148.257812 L 104.484375 130.597656 "/>
<path style=" stroke:none;fill-rule:nonzero;fill:rgb(100%,100%,100%);fill-opacity:1;" d="M 145.070312 129.015625 L 154.070312 129.015625 L 154.070312 142.015625 L 145.070312 142.015625 Z M 145.070312 129.015625 "/>
<g style="fill:rgb(100%,0%,0%);fill-opacity:1;">
  <use xlink:href="#glyph0-1" x="145.070312" y="138.916992"/>
</g>
<path style="fill:none;stroke-width:1.2;stroke-linecap:butt;stroke-linejoin:miter;stroke:rgb(0%,0%,0%);stroke-opacity:1;stroke-miterlimit:10;" d="M 104.484375 130.597656 L 78.882812 139.621094 "/>
<path style="fill:none;stroke-width:1.2;stroke-linecap:butt;stroke-linejoin:miter;stroke:rgb(0%,0%,0%);stroke-opacity:1;stroke-miterlimit:10;" d="M 99.800781 125.476562 L 79.316406 132.695312 "/>
<path style="fill:none;stroke-width:1.2;stroke-linecap:butt;stroke-linejoin:miter;stroke:rgb(0%,0%,0%);stroke-opacity:1;stroke-miterlimit:10;" d="M 103.8125 103.460938 L 104.484375 130.597656 "/>
<path style="fill:none;stroke-width:1.2;stroke-linecap:butt;stroke-linejoin:miter;stroke:rgb(0%,0%,0%);stroke-opacity:1;stroke-miterlimit:10;" d="M 78.882812 139.621094 L 73.898438 166.304688 "/>
<path style="fill:none;stroke-width:1.2;stroke-linecap:butt;stroke-linejoin:miter;stroke:rgb(0%,0%,0%);stroke-opacity:1;stroke-miterlimit:10;" d="M 78.882812 139.621094 L 62.386719 118.0625 "/>
<path style="fill:none;stroke-width:1.2;stroke-linecap:butt;stroke-linejoin:miter;stroke:rgb(0%,0%,0%);stroke-opacity:1;stroke-miterlimit:10;" d="M 73.898438 166.304688 L 94.511719 183.964844 "/>
<path style="fill:none;stroke-width:1.2;stroke-linecap:butt;stroke-linejoin:miter;stroke:rgb(0%,0%,0%);stroke-opacity:1;stroke-miterlimit:10;" d="M 80.113281 163.222656 L 96.605469 177.347656 "/>
<path style="fill:none;stroke-width:1.2;stroke-linecap:butt;stroke-linejoin:miter;stroke:rgb(0%,0%,0%);stroke-opacity:1;stroke-miterlimit:10;" d="M 73.898438 166.304688 L 61.097656 170.820312 "/>
<path style="fill:none;stroke-width:1.2;stroke-linecap:butt;stroke-linejoin:miter;stroke:rgb(100%,0%,0%);stroke-opacity:1;stroke-miterlimit:10;" d="M 61.097656 170.820312 L 48.296875 175.332031 "/>
<path style="fill:none;stroke-width:1.2;stroke-linecap:butt;stroke-linejoin:miter;stroke:rgb(0%,0%,0%);stroke-opacity:1;stroke-miterlimit:10;" d="M 94.511719 183.964844 L 89.527344 210.648438 "/>
<path style=" stroke:none;fill-rule:nonzero;fill:rgb(100%,100%,100%);fill-opacity:1;" d="M 31.296875 168.832031 L 48.296875 168.832031 L 48.296875 181.832031 L 31.296875 181.832031 Z M 31.296875 168.832031 "/>
<g style="fill:rgb(100%,0%,0%);fill-opacity:1;">
  <use xlink:href="#glyph0-2" x="31.296875" y="178.733398"/>
  <use xlink:href="#glyph0-1" x="39.321289" y="178.733398"/>
</g>
<path style="fill:none;stroke-width:1.2;stroke-linecap:butt;stroke-linejoin:miter;stroke:rgb(0%,0%,0%);stroke-opacity:1;stroke-miterlimit:10;" d="M 62.308594 114.871094 L 48.738281 115.207031 "/>
<path style="fill:none;stroke-width:1.2;stroke-linecap:butt;stroke-linejoin:miter;stroke:rgb(100%,0%,0%);stroke-opacity:1;stroke-miterlimit:10;" d="M 48.738281 115.207031 L 35.171875 115.542969 "/>
<path style="fill:none;stroke-width:1.2;stroke-linecap:butt;stroke-linejoin:miter;stroke:rgb(0%,0%,0%);stroke-opacity:1;stroke-miterlimit:10;" d="M 62.464844 121.253906 L 48.898438 121.589844 "/>
<path style="fill:none;stroke-width:1.2;stroke-linecap:butt;stroke-linejoin:miter;stroke:rgb(100%,0%,0%);stroke-opacity:1;stroke-miterlimit:10;" d="M 48.898438 121.589844 L 35.328125 121.925781 "/>
<path style="fill:none;stroke-width:1.2;stroke-linecap:butt;stroke-linejoin:miter;stroke:rgb(0%,0%,0%);stroke-opacity:1;stroke-miterlimit:10;" d="M 62.386719 118.0625 L 70.089844 106.886719 "/>
<path style="fill:none;stroke-width:1.2;stroke-linecap:butt;stroke-linejoin:miter;stroke:rgb(100%,0%,0%);stroke-opacity:1;stroke-miterlimit:10;" d="M 70.089844 106.886719 L 77.792969 95.714844 "/>
<path style=" stroke:none;fill-rule:nonzero;fill:rgb(100%,100%,100%);fill-opacity:1;" d="M 26.25 112.234375 L 35.25 112.234375 L 35.25 125.234375 L 26.25 125.234375 Z M 26.25 112.234375 "/>
<g style="fill:rgb(100%,0%,0%);fill-opacity:1;">
  <use xlink:href="#glyph0-1" x="26.25" y="122.135742"/>
</g>
<path style="fill:none;stroke-width:1.2;stroke-linecap:butt;stroke-linejoin:miter;stroke:rgb(100%,0%,0%);stroke-opacity:1;stroke-miterlimit:10;" d="M 77.792969 95.714844 L 90.804688 99.585938 "/>
<path style="fill:none;stroke-width:1.2;stroke-linecap:butt;stroke-linejoin:miter;stroke:rgb(0%,0%,0%);stroke-opacity:1;stroke-miterlimit:10;" d="M 90.804688 99.585938 L 103.8125 103.460938 "/>
<path style=" stroke:none;fill-rule:nonzero;fill:rgb(100%,100%,100%);fill-opacity:1;" d="M 73.792969 89.214844 L 82.792969 89.214844 L 82.792969 102.214844 L 73.792969 102.214844 Z M 73.792969 89.214844 "/>
<g style="fill:rgb(100%,0%,0%);fill-opacity:1;">
  <use xlink:href="#glyph0-1" x="73.792969" y="99.116211"/>
</g>
<path style="fill:none;stroke-width:1.2;stroke-linecap:butt;stroke-linejoin:miter;stroke:rgb(0%,0%,0%);stroke-opacity:1;stroke-miterlimit:10;" d="M 103.8125 103.460938 L 114.589844 95.214844 "/>
<path style="fill:none;stroke-width:1.2;stroke-linecap:butt;stroke-linejoin:miter;stroke:rgb(100%,0%,0%);stroke-opacity:1;stroke-miterlimit:10;" d="M 114.589844 95.214844 L 125.371094 86.964844 "/>
<path style=" stroke:none;fill-rule:nonzero;fill:rgb(100%,100%,100%);fill-opacity:1;" d="M 117.371094 80.464844 L 134.371094 80.464844 L 134.371094 93.464844 L 117.371094 93.464844 Z M 117.371094 80.464844 "/>
<g style="fill:rgb(100%,0%,0%);fill-opacity:1;">
  <use xlink:href="#glyph0-1" x="117.371094" y="90.366211"/>
  <use xlink:href="#glyph0-2" x="125.771484" y="90.366211"/>
</g>
<path style="fill:none;stroke-width:1.2;stroke-linecap:butt;stroke-linejoin:miter;stroke:rgb(0%,0%,0%);stroke-opacity:1;stroke-miterlimit:10;" d="M 188.304688 103.125 L 197.878906 93.503906 "/>
<path style="fill:none;stroke-width:1.2;stroke-linecap:butt;stroke-linejoin:miter;stroke:rgb(100%,0%,0%);stroke-opacity:1;stroke-miterlimit:10;" d="M 197.878906 93.503906 L 207.453125 83.886719 "/>
<path style="fill:none;stroke-width:1.2;stroke-linecap:butt;stroke-linejoin:miter;stroke:rgb(0%,0%,0%);stroke-opacity:1;stroke-miterlimit:10;" d="M 183.777344 98.617188 L 193.351562 89 "/>
<path style="fill:none;stroke-width:1.2;stroke-linecap:butt;stroke-linejoin:miter;stroke:rgb(100%,0%,0%);stroke-opacity:1;stroke-miterlimit:10;" d="M 193.351562 89 L 202.925781 79.378906 "/>
<path style=" stroke:none;fill-rule:nonzero;fill:rgb(100%,100%,100%);fill-opacity:1;" d="M 201.191406 75.132812 L 210.191406 75.132812 L 210.191406 88.132812 L 201.191406 88.132812 Z M 201.191406 75.132812 "/>
<g style="fill:rgb(100%,0%,0%);fill-opacity:1;">
  <use xlink:href="#glyph0-1" x="201.191406" y="85.03418"/>
</g>
<path style="fill:none;stroke-width:1.2;stroke-linecap:butt;stroke-linejoin:miter;stroke:rgb(100%,0%,0%);stroke-opacity:1;stroke-miterlimit:10;" d="M 238.511719 114.800781 L 251.632812 118.285156 "/>
<path style="fill:none;stroke-width:1.2;stroke-linecap:butt;stroke-linejoin:miter;stroke:rgb(0%,0%,0%);stroke-opacity:1;stroke-miterlimit:10;" d="M 251.632812 118.285156 L 264.75 121.765625 "/>
<path style=" stroke:none;fill-rule:nonzero;fill:rgb(100%,100%,100%);fill-opacity:1;" d="M 234.511719 108.300781 L 243.511719 108.300781 L 243.511719 121.300781 L 234.511719 121.300781 Z M 234.511719 108.300781 "/>
<g style="fill:rgb(100%,0%,0%);fill-opacity:1;">
  <use xlink:href="#glyph0-1" x="234.511719" y="118.202148"/>
</g>
</g>
</svg>

<svg xmlns="http://www.w3.org/2000/svg" xmlns:xlink="http://www.w3.org/1999/xlink" width="300pt" height="300pt" viewBox="0 0 300 300"><defs><symbol overflow="visible"><path d="M.547 1.938V-7.75h5.5v9.688zm.625-.61h4.266v-8.47H1.171zm0 0"/></symbol><symbol overflow="visible" id="a"><path d="M4.328-7.28c-.78 0-1.406.296-1.875.89-.46.585-.687 1.382-.687 2.39 0 1.012.226 1.813.687 2.406.47.586 1.094.875 1.875.875.79 0 1.414-.288 1.875-.874.457-.593.688-1.394.688-2.406 0-1.008-.23-1.805-.687-2.39-.46-.594-1.086-.89-1.875-.89zm0-.892c1.125 0 2.024.383 2.703 1.14C7.708-6.28 8.048-5.27 8.048-4c0 1.262-.34 2.273-1.016 3.03C6.353-.22 5.454.157 4.33.157S2.3-.22 1.625-.97c-.668-.75-1-1.757-1-3.03 0-1.27.332-2.28 1-3.03.676-.76 1.578-1.142 2.703-1.142zm0 0"/></symbol><symbol overflow="visible" id="b"><path d="M1.078-8.016h1.094v3.282H6.11v-3.282h1.077V0H6.11v-3.813H2.17V0H1.078zm0 0"/></symbol></defs><g><path fill="#fff" d="M0 0h300v300H0z"/><path d="M214.387 205.688l-7.086-26.204M207.3 179.484l19.15-19.238M204.688 173.055l15.32-15.39M181.063 172.52l26.238 6.964M226.45 160.246l-7.087-26.207M219.363 134.04l-26.238-6.966M215.102 139.516l-20.993-5.57M219.363 134.04l9.575-9.618" stroke-width="1.2" stroke="#000" stroke-miterlimit="10" fill="none"/><path d="M228.938 124.422l9.574-9.62" stroke-width="1.2" stroke="#f00" stroke-miterlimit="10" fill="none"/><path d="M193.125 127.074l-19.148 19.242M193.125 127.074l-7.086-26.203M173.977 146.316l7.085 26.204M168.52 150.602l5.667 20.964" stroke-width="1.2" stroke="#000" stroke-miterlimit="10" fill="none"/><path d="M149.07 135.516l12.453 5.398" stroke-width="1.2" stroke="#f00" stroke-miterlimit="10" fill="none"/><path d="M161.523 140.914l12.454 5.402M181.063 172.52l-16.07 21.878M162.172 195.895l6.37 11.988" stroke-width="1.2" stroke="#000" stroke-miterlimit="10" fill="none"/><path d="M168.543 207.883l6.37 11.984" stroke-width="1.2" stroke="#f00" stroke-miterlimit="10" fill="none"/><path d="M167.813 192.898l6.37 11.985" stroke-width="1.2" stroke="#000" stroke-miterlimit="10" fill="none"/><path d="M174.184 204.883l6.37 11.984" stroke-width="1.2" stroke="#f00" stroke-miterlimit="10" fill="none"/><path d="M164.992 194.398l-13.562.54" stroke-width="1.2" stroke="#000" stroke-miterlimit="10" fill="none"/><path d="M151.43 194.938l-13.563.54" stroke-width="1.2" stroke="#f00" stroke-miterlimit="10" fill="none"/><path d="M173.734 211.867h9v13h-9zm0 0" fill="#fff"/><use xlink:href="#a" x="173.734" y="221.769" fill="#f00"/><path d="M137.867 195.477l-8.875-10.27" stroke-width="1.2" stroke="#f00" stroke-miterlimit="10" fill="none"/><path d="M128.992 185.207l-8.88-10.266" stroke-width="1.2" stroke="#000" stroke-miterlimit="10" fill="none"/><path d="M133.867 188.977h9v13h-9zm0 0" fill="#fff"/><use xlink:href="#a" x="133.867" y="198.878" fill="#f00"/><path d="M120.113 174.94l4.99-26.682M114.336 171.098l3.988-21.344M94.512 183.965l25.6-9.024M125.102 148.258l11.984-6.37" stroke-width="1.2" stroke="#000" stroke-miterlimit="10" fill="none"/><path d="M137.086 141.887l11.984-6.37" stroke-width="1.2" stroke="#f00" stroke-miterlimit="10" fill="none"/><path d="M125.102 148.258l-20.618-17.66" stroke-width="1.2" stroke="#000" stroke-miterlimit="10" fill="none"/><path d="M145.07 129.016h9v13h-9zm0 0" fill="#fff"/><use xlink:href="#a" x="145.07" y="138.917" fill="#f00"/><path d="M104.484 130.598l-25.6 9.023M99.8 125.477l-20.484 7.218M103.813 103.46l.67 27.138M78.883 139.62l-4.985 26.685M78.883 139.62l-16.496-21.558M73.898 166.305l20.614 17.66M80.113 163.223l16.492 14.125M73.898 166.305l-12.8 4.515" stroke-width="1.2" stroke="#000" stroke-miterlimit="10" fill="none"/><path d="M61.098 170.82l-12.8 4.512" stroke-width="1.2" stroke="#f00" stroke-miterlimit="10" fill="none"/><path d="M94.512 183.965l-4.985 26.683" stroke-width="1.2" stroke="#000" stroke-miterlimit="10" fill="none"/><path d="M31.297 168.832h17v13h-17zm0 0" fill="#fff"/><g fill="#f00"><use xlink:href="#b" x="31.297" y="178.733"/><use xlink:href="#a" x="39.321" y="178.733"/></g><path d="M62.31 114.87l-13.572.337" stroke-width="1.2" stroke="#000" stroke-miterlimit="10" fill="none"/><path d="M48.738 115.207l-13.566.336" stroke-width="1.2" stroke="#f00" stroke-miterlimit="10" fill="none"/><path d="M62.465 121.254l-13.567.336" stroke-width="1.2" stroke="#000" stroke-miterlimit="10" fill="none"/><path d="M48.898 121.59l-13.57.336" stroke-width="1.2" stroke="#f00" stroke-miterlimit="10" fill="none"/><path d="M62.387 118.063l7.703-11.176" stroke-width="1.2" stroke="#000" stroke-miterlimit="10" fill="none"/><path d="M70.09 106.887l7.703-11.172" stroke-width="1.2" stroke="#f00" stroke-miterlimit="10" fill="none"/><path d="M26.25 112.234h9v13h-9zm0 0" fill="#fff"/><use xlink:href="#a" x="26.25" y="122.136" fill="#f00"/><path d="M77.793 95.715l13.012 3.87" stroke-width="1.2" stroke="#f00" stroke-miterlimit="10" fill="none"/><path d="M90.805 99.586l13.007 3.875" stroke-width="1.2" stroke="#000" stroke-miterlimit="10" fill="none"/><path d="M73.793 89.215h9v13h-9zm0 0" fill="#fff"/><use xlink:href="#a" x="73.793" y="99.116" fill="#f00"/><path d="M103.813 103.46l10.777-8.245" stroke-width="1.2" stroke="#000" stroke-miterlimit="10" fill="none"/><path d="M114.59 95.215l10.78-8.25" stroke-width="1.2" stroke="#f00" stroke-miterlimit="10" fill="none"/><path d="M117.37 80.465h17v13h-17zm0 0" fill="#fff"/><g fill="#f00"><use xlink:href="#a" x="117.371" y="90.366"/><use xlink:href="#b" x="125.771" y="90.366"/></g><path d="M188.305 103.125l9.574-9.62" stroke-width="1.2" stroke="#000" stroke-miterlimit="10" fill="none"/><path d="M197.88 93.504l9.573-9.617" stroke-width="1.2" stroke="#f00" stroke-miterlimit="10" fill="none"/><path d="M183.777 98.617L193.352 89" stroke-width="1.2" stroke="#000" stroke-miterlimit="10" fill="none"/><path d="M193.352 89l9.574-9.62" stroke-width="1.2" stroke="#f00" stroke-miterlimit="10" fill="none"/><path d="M201.19 75.133h9v13h-9zm0 0" fill="#fff"/><use xlink:href="#a" x="201.191" y="85.034" fill="#f00"/><path d="M238.512 114.8l13.12 3.485" stroke-width="1.2" stroke="#f00" stroke-miterlimit="10" fill="none"/><path d="M251.633 118.285l13.117 3.48" stroke-width="1.2" stroke="#000" stroke-miterlimit="10" fill="none"/><path d="M234.512 108.3h9v13h-9zm0 0" fill="#fff"/><use xlink:href="#a" x="234.512" y="118.202" fill="#f00"/></g></svg>
